X: 18
T: Ballinamona Oro
O: "In the Poor Soldier"
%R: jig
B: "The Hibernian Muse" p.12 #1
F: http://imslp.org/wiki/The_Hibernian_Muse_%28Various%29
Z: 2015 John Chambers <jc:trillian.mit.edu>
P: No. XVIII.
M: 6/8
L: 1/8
K: G
% - - - - - - - - - - - - - - - - - - - - - - - - - - - - -
V: 1
|:\
G>AG g>fg | agf g2b | a>gf efg | dec B2d |\
G>AG gfg | agf g2b | a>gf efg | dec B>cd |
ecA Ace | e3 c3 | dBG GBd | d3 B3 |\
ecA Ace | a3 {bc'}Tf3 | gdB cAF | G3- G3 :|
% - - - - - - - - - - - - - - - - - - - - - - - - - - - - -
V: 2 clef=bass middle=d
|:\
g3 g3 | d3 g3 | d3 c'3 | f2d g3 |\
G3 B3 | d3 B3 | a3 c'3 | g3 g3 |
a3 a3 | aec Ace | g6- | gdB GBd |\
a6- | a3 A3 | B2G d2D | G3- G3 :|

%%sep 2 1 500
%%sep 1 1 500

